packages/icons/src/emoji/svg/apple.svg

<svg width="120" height="120" viewBox="0 0 120 120" fill="none" xmlns="http://www.w3.org/2000/svg">
<path d="M56.9534 31.8C46.7722 30.4781 36.7316 28.0312 27.244 33.9469C18.3847 39.4781 11.5972 48.9187 9.00967 59.025C5.35342 73.3031 7.52842 89.5594 17.2878 100.997C22.6503 107.269 31.5659 113.953 39.5347 116.437C59.9909 122.831 85.2753 119.803 98.1097 100.744C101.775 95.3062 105.45 87.9281 106.791 81.4781C110.55 63.4219 106.341 42.2625 87.6472 34.4906C79.3222 31.0312 70.4253 32.9344 61.7253 32.3062C60.1222 32.1844 58.5378 32.0062 56.9534 31.8Z" fill="#DB4437"/>
<path d="M88.0501 0.543681C94.8376 0.318681 106.219 3.35618 110.822 8.20306C111.385 8.81243 112.463 9.66556 112.622 10.4156C112.875 11.6437 111.9 12.6937 111.188 13.5937C101.063 26.5218 80.3251 33.2249 67.2001 24.4406C65.3626 23.2124 66.347 20.9343 66.722 19.0499C68.2314 11.5312 74.0345 4.63118 81.1876 1.90306C83.4283 1.04993 85.7439 0.618681 88.0501 0.543681Z" fill="#BDCF46"/>
<path d="M66.9471 20.55C66.8815 20.3062 66.7596 20.0906 66.5815 19.9406C66.2065 19.65 65.4283 19.3594 64.9877 19.2C64.3221 18.9469 63.6096 18.8438 62.9158 18.8438C62.6533 18.8438 62.4002 18.8531 62.1565 18.8812C61.219 18.9937 60.4127 19.3406 59.8783 20.1C59.1658 21.0844 59.2877 22.2 59.1002 23.3437C58.8377 24.975 58.069 26.4562 57.6471 28.05C57.319 29.2781 57.0565 30.525 56.8221 31.7813C56.644 32.7 56.494 33.6187 56.3815 34.5469C55.9783 37.9875 55.4158 41.4281 55.5658 44.9063C55.5752 45.3844 55.594 45.8625 55.6221 46.3406C55.6315 46.5844 55.6596 46.8188 55.6971 47.0625C55.7533 47.3813 55.7721 47.7469 55.8096 48.1125C55.8283 48.2437 55.8377 48.375 55.8565 48.5063C55.9596 49.0688 56.1565 49.5938 56.6908 49.8844C57.3565 50.2594 58.144 50.4281 58.9315 50.4375C59.1752 50.4375 59.4096 50.4 59.6533 50.3812L60.2721 50.3437C60.5721 50.2594 60.8721 50.1469 61.1908 50.0625C61.6877 49.9406 62.1752 49.6875 62.5221 49.3031C62.8315 48.9562 62.869 48.6 62.8502 48.1875L62.8221 47.8969C62.7846 47.5312 62.7565 47.1563 62.7377 46.7813C62.7002 46.0406 62.6721 45.2812 62.6533 44.5406C62.5971 42.8719 62.6252 41.1844 62.7752 39.5156C62.8783 38.5219 62.9252 37.5094 63.0096 36.5156C63.1127 35.1281 63.3096 33.75 63.544 32.3719C63.6002 32.0812 63.6283 31.8 63.6846 31.5187C64.0221 29.7562 64.6502 28.1719 65.3252 26.5031C65.6346 25.7344 65.7658 24.9188 66.0471 24.1781C66.3565 23.4094 67.0408 22.9875 67.0408 22.0688C67.0408 21.6469 67.0783 21.0375 66.9471 20.55Z" fill="#855C52"/>
<path d="M36.7217 40.8657C35.5217 39.2532 32.2311 39.0938 29.8874 39.9001C26.9905 40.8938 24.4124 43.0595 22.603 45.497C21.0467 47.597 18.7592 52.0032 21.0186 54.4126C22.1249 55.5845 23.4655 55.1251 24.7405 54.4876C27.0561 53.3345 28.453 50.8126 30.403 49.1907C32.4092 47.5313 39.5061 44.5501 36.7217 40.8657Z" fill="white"/>
<path d="M56.2689 47.8218C54.0751 47.3531 51.9376 46.575 49.9314 45.5906C48.8814 45.075 45.8439 42.6562 45.5345 45.1968C45.1407 48.2625 49.3689 50.9062 51.4689 51.8906C55.0876 53.5968 59.1376 54.2062 63.0282 53.4187C66.7782 52.6593 69.9751 50.8125 72.3751 47.5687C72.6845 47.1468 72.8907 46.65 73.0407 46.1812C73.5751 44.4843 71.7189 44.4656 70.7251 44.9437C69.9189 45.3281 69.2251 45.9468 68.4282 46.3312C66.8907 47.0718 65.2782 47.6718 63.6376 47.9906C61.1814 48.4593 58.697 48.3375 56.2689 47.8218Z" fill="#B93221"/>
</svg>

<svg xmlns="http://www.w3.org/2000/svg" fill="none" aria-hidden="true" data-slot="icon" viewBox="0 0 120 120"><path fill="#DB4437" d="M56.953 31.8c-10.18-1.322-20.221-3.769-29.709 2.147-8.86 5.531-15.647 14.972-18.234 25.078-3.657 14.278-1.482 30.534 8.278 41.972 5.362 6.272 14.278 12.956 22.247 15.44 20.456 6.394 45.74 3.366 58.575-15.693 3.665-5.438 7.34-12.816 8.681-19.266 3.759-18.056-.45-39.215-19.144-46.987-8.325-3.46-17.222-1.557-25.922-2.185a89 89 0 0 1-4.772-.506"/><path fill="#BDCF46" d="M88.05.544c6.788-.225 18.169 2.812 22.772 7.66.563.608 1.641 1.462 1.8 2.212.253 1.228-.722 2.278-1.434 3.178C101.063 26.522 80.325 33.224 67.2 24.44c-1.837-1.229-.853-3.507-.478-5.391 1.51-7.519 7.313-14.419 14.466-17.147A21.2 21.2 0 0 1 88.05.543"/><path fill="#855C52" d="M66.947 20.55a1.2 1.2 0 0 0-.365-.61c-.375-.29-1.154-.58-1.594-.74a5.8 5.8 0 0 0-2.072-.356q-.394-.002-.76.037c-.937.113-1.743.46-2.278 1.219-.712.984-.59 2.1-.778 3.244-.262 1.631-1.031 3.112-1.453 4.706a50 50 0 0 0-.825 3.731 40 40 0 0 0-.44 2.766c-.404 3.44-.966 6.881-.816 10.36q.014.716.056 1.434c.01.243.038.478.075.721.056.32.075.685.113 1.05.018.132.028.263.046.394.104.563.3 1.088.835 1.378.665.375 1.453.544 2.24.553.244 0 .479-.037.722-.056l.62-.037c.3-.085.6-.197.918-.282.497-.121.984-.374 1.331-.759.31-.347.347-.703.328-1.115l-.028-.291q-.056-.55-.084-1.116c-.038-.74-.066-1.5-.085-2.24a41 41 0 0 1 .122-5.025c.103-.994.15-2.007.235-3 .103-1.388.3-2.766.534-4.144.056-.29.084-.572.14-.853.338-1.763.966-3.347 1.641-5.016.31-.769.44-1.584.722-2.325.31-.769.994-1.19.994-2.11 0-.421.037-1.03-.094-1.518"/><path fill="#fff" d="M36.722 40.866c-1.2-1.613-4.49-1.772-6.835-.966-2.896.994-5.475 3.16-7.284 5.597-1.556 2.1-3.844 6.506-1.584 8.916 1.106 1.172 2.447.712 3.722.075 2.315-1.154 3.712-3.675 5.662-5.297 2.006-1.66 9.103-4.64 6.319-8.325"/><path fill="#B93221" d="M56.269 47.822c-2.194-.469-4.331-1.247-6.338-2.231-1.05-.516-4.087-2.935-4.396-.394-.394 3.066 3.834 5.71 5.934 6.694 3.619 1.706 7.669 2.315 11.56 1.528 3.75-.76 6.946-2.606 9.346-5.85.31-.422.516-.919.666-1.388.534-1.697-1.322-1.715-2.316-1.237-.806.384-1.5 1.003-2.297 1.387-1.537.74-3.15 1.34-4.79 1.66-2.457.468-4.941.346-7.37-.17"/></svg>
